X: 4
T: Fred Picknell's March
Z: narrowdog
S: https://thesession.org/tunes/12490#setting20896
R: barndance
M: 4/4
L: 1/8
K: Gmaj
|: G4 d4 | d2 cB AGAB | c2 g2 g2 fe | d3 c B2 gf |
e2 dc Bc d2 | A2 Bc B2 ed | cBAG E3 D | D4- D4 :|
D4 d2 AB | cdBc A2 BA | G2 ga g2 fe | de dc B2 ba |
g2 gf efge | agfe d2gf | edcB A3 G | G4- GF ED- ||
D4 d2 AB |cdBc A2 BA | G2 ga g2 fe | de dc B2 ba |
g2 gf efge | agfe d2gf | edcB A3 G | G4- G4 ||
